X: 22693
T: Lamb Skinnet
R: jig
M: 6/8
K: Gmajor
|:GBd dBG|c2e efg|GBd dBG|FAA A2B|
GBd dBG|c2e efg|dBG cAF|1 G3 G2B:|2 G3 G2d||
|:gdB gdB|c2e efg|dBG dBG|FAA A2d|
gdB gdB|c2e efg|dBG cAF|G3 G2d|
gdB gdB|c2e efg|dBG dBG|FAA A2B|
GBd dBG|c2e efg|dBG cAF|G3 G2B||

